material/.icons/material/debug-step-into.svg

<svg xmlns="http://www.w3.org/2000/svg" viewBox="0 0 24 24"><path d="M12 22a2 2 0 01-2-2 2 2 0 012-2 2 2 0 012 2 2 2 0 01-2 2m1-20v11l4.5-4.5 1.42 1.42L12 16.84 5.08 9.92 6.5 8.5 11 13V2h2z"/></svg>

<?xml version="1.0" encoding="UTF-8"?><!DOCTYPE svg PUBLIC "-//W3C//DTD SVG 1.1//EN" "http://www.w3.org/Graphics/SVG/1.1/DTD/svg11.dtd"><svg xmlns="http://www.w3.org/2000/svg" xmlns:xlink="http://www.w3.org/1999/xlink" version="1.1" id="mdi-debug-step-into" width="24" height="24" viewBox="0 0 24 24"><path d="M12,22A2,2 0 0,1 10,20A2,2 0 0,1 12,18A2,2 0 0,1 14,20A2,2 0 0,1 12,22M13,2V13L17.5,8.5L18.92,9.92L12,16.84L5.08,9.92L6.5,8.5L11,13V2H13Z" /></svg>
